X:175
T: Waise und Stiefmutter
N: Q0116B
O: Mitteleuropa, Deutschland (BRD) , Hessen, Nassau, Steinperf
R: Ballade, Waise, boese Stiefmutter, Klage am Grab, Geist
M: 6/8
L: 1/8
K: G
D | G2FE2D | C3-C2
D | F2ED2C | B,3-B,2
D | B2BA2B | c3-c2
E | D2AA2B | G3-G2

@@@ Tune index: 1468
